X:1
T:Liebestraum No. 3 (theme)
C:Franz Liszt
O:S.541 No.3
M:3/4
L:1/4
Q:1/4=88
K:Ab
% A section — lyrical opening theme (Liebesträume S.541 No.3)
A | c2 B | A3 | c d c | B3 | A2 c | d c B | A2 G | A3 | c B A | c d c | B A G | A3 |]
